X:1
T:League and Slasher -- Reel
R:reel
B:Ryan's Mammoth Collection
Z: Contributed by Ray Davies,  ray:davies99.freeserve.co.uk
M:C|
L:1/8
K:Edor
vdc"^Segno"|BEEE B2Bc|B2Bc dBAG|FDDD FDAD|FAAB A2dc|
BEEE B2Bc|B2Bc dBAF|ABde fgfe|dBAF E2H::
Beee e2ed|Bedf gfed|Bddd d2dB|ABde fedB|
Beee e2ed|Beef gfed|B2Bc dcdB|AFDF E2dc"^Segno":|
